icon-themes/sifr_svg/cmd/sc_connectorlinesarrows.svg

<svg viewBox="0 0 16 16" xmlns="http://www.w3.org/2000/svg"><path d="m5 0c-.30945 0-.55232.0903-.75.28125-1.41667 1.07301-2.83333 2.64575-4.25 3.71875l4.25 3.71875c.19768.19095.44055.28125.75.28125h.5859375.4140625v-1c0-.25689-.12983-.52846-.3125-.71875l-1.5097656-1.28125h1.8222656l2 8h3.822266l-1.509766 1.28125c-.18267.1903-.3125.46186-.3125.71875v1h.414062.585938c.30945 0 .55232-.0903.75-.28125 1.41667-1.07301 2.83333-2.64575 4.25-3.71875l-4.25-3.71875c-.19768-.19095-.44055-.28125-.75-.28125h-.585938-.414062v1c0 .25689.12983.52846.3125.71875l1.509766 1.28125h-2.322266l-2-8h-3.3222656l1.5097656-1.28125c.18267-.1903.3125-.46186.3125-.71875v-1h-.4140625z" fill="#555753"/></svg>

<svg xmlns="http://www.w3.org/2000/svg" viewBox="0 0 16 16">
  <path
     style="fill:#555753"
     d="M 5,0 C 4.69055,0 4.44768,0.0903 4.25,0.28125 2.83333,1.35426 1.41667,2.927 0,4 L 4.25,7.71875 C 4.44768,7.9097 4.69055,8 5,8 H 5.5859375 6 V 7 C 6,6.74311 5.87017,6.47154 5.6875,6.28125 L 4.1777344,5 H 6 l 2,8 h 3.822266 L 10.3125,14.28125 C 10.12983,14.47155 10,14.74311 10,15 v 1 H 10.414062 11 c 0.30945,0 0.55232,-0.0903 0.75,-0.28125 C 13.16667,14.64574 14.58333,13.073 16,12 L 11.75,8.28125 C 11.55232,8.0903 11.30945,8 11,8 H 10.414062 10 v 1 c 0,0.25689 0.12983,0.52846 0.3125,0.71875 L 11.822266,11 H 9.5 L 7.5,3 H 4.1777344 L 5.6875,1.71875 C 5.87017,1.52845 6,1.25689 6,1 V 0 H 5.5859375 Z"
     />
</svg>
